!!!COM: Mozart, Wolfgang Amadeus
!!!OTL: Musikalische Würfelspiele, Kontre-Tänze
!!!SCA: K<sup>6</sup> Anh. C30.01 (K<sup>3</sup> Anh. 294d)
**kern	**kern
*staff2	*staff2
*clefF4	*clefG2
*M2/4	*M2/4
*MM110	*MM110
*>[A,A1,A,A2,B]	*>[A,A1,A,A2,B]
*>norep[A,A2,B]	*>norep[A,A2,B]
*>A	*>A
=7	=7
4C	8cc
.	8cc
4C	8ee
.	8ee
=150	=150
16C	8gg
16E	.
16G	8ee
16E	.
4C	16cc
.	16ee
.	16gg
.	16ee
=86	=86
4GG	8ff
.	16ff
.	16dd
4GG	8b
.	16b
.	16dd
=15	=15
4C	16cc
.	16ee
.	16gg
.	16ee
4C	8cc
.	8cc
=117	=117
16D	8aa
16A	.
16F#	4ff#
16A	.
16D	.
16A	.
16F#	8dd
16A	.
=30	=30
4BB 4G	8gg
.	8dd
4BB	(8dd
.	8dd#)
=132	=132
16C	8ee
16A	.
16F#	4cc
16A	.
16AA	.
16D	.
16C	16a
16D	16f#
=44	=44
*>A1	*>A1
4GG	4g 4b 4gg
16G	4r
16F	.
16E	.
16D	.
=44:|!	=44:|!
*>A2	*>A2
4GG	4g 4b 4gg
16GG	4r
16AA	.
16BB	.
16C#	.
=4||	=4||
*>B	*>B
4D	8d
.	8dd
4C 4D	8ff#
.	8aa
=55	=55
16BB	8gg
16D	.
16G	8gg
16D	.
8BB	8bb
8BB	8gg
=38	=38
8C	16cc
.	16ccc
8r	16gg
.	16ee
8C	16cc
.	16gg
8r	16ee
.	16cc
=19	=19
4GG	16dd
.	16b
.	16cc
.	16a
4r	16g
.	16gg
.	16ff
.	16dd
=128	=128
16C	8g
16G	.
16E	4cc
16G	.
16C	.
16G	.
16E	8ee
16G	.
=32	=32
4C	8ccc
.	8gg
4r	8ee
.	8cc
=159	=159
4G	8dd
.	4ff
4GG	.
.	16dd
.	16b
=20	=20
4C	4cc
4CC	4c
==	==
*-	*-
